assets/img/ticon8.svg

<svg width="48" height="48" viewBox="0 0 48 48" fill="none" xmlns="http://www.w3.org/2000/svg">
<circle cx="24" cy="24" r="24" fill="#FFC940"/>
<g clip-path="url(#clip0)">
<path d="M19.2783 34C19.02 34 18.9077 33.6743 19.1099 33.5171C19.5141 33.2027 22.5237 31.653 23.3996 31.4733C23.568 31.4396 23.7028 31.2937 23.7028 31.1252L23.467 23.4891C23.467 23.3543 23.4108 23.2308 23.321 23.1409L15.202 15.3812C14.7415 14.831 15.1234 14 15.8421 14H24.4327H33.0234C33.7421 14 34.1239 14.831 33.6635 15.3812L25.5445 23.1522C25.4434 23.242 25.3873 23.3655 25.3873 23.5003L25.1514 31.1364C25.1514 31.3049 25.275 31.4396 25.4434 31.4733C26.3305 31.6418 29.3401 33.2027 29.7444 33.5171C29.9465 33.6743 29.8342 34 29.5759 34H19.2783Z" fill="black"/>
</g>
<defs>
<clipPath id="clip0">
<rect width="18.8546" height="20" fill="white" transform="translate(15 14)"/>
</clipPath>
</defs>
</svg>

<svg width="48" height="48" fill="none" xmlns="http://www.w3.org/2000/svg"><circle cx="24" cy="24" r="24" fill="#FFC940"/><g clip-path="url(#clip0)"><path d="M19.278 34c-.258 0-.37-.326-.168-.483.404-.314 3.414-1.864 4.29-2.044.168-.033.303-.18.303-.348l-.236-7.636a.493.493 0 00-.146-.348l-8.119-7.76a.838.838 0 01.64-1.381h17.181c.72 0 1.1.831.64 1.381l-8.118 7.771a.46.46 0 00-.158.348l-.236 7.636c0 .169.124.304.292.337.887.169 3.897 1.73 4.301 2.044.203.157.09.483-.168.483H19.278z" fill="#000"/></g><defs><clipPath id="clip0"><path fill="#fff" transform="translate(15 14)" d="M0 0h18.855v20H0z"/></clipPath></defs></svg>
